X:512
T:The Snowy Breasted Pearl
M:3/4
L:1/8
B:O'Neill's 512
N:"Moderate" "collected by J. O'Neill"
Z:Transcribed by Dave Wooldridge
K:G
(d/2e/2f) \
| g4 (ge) | d3 (cBA) | G4 BG | A2 (EDEG) |
G4 (cA) | c2 d2 (ea) | g4 (f/2g/2a) | g2 fe d2 | e2 (BABd) | e4 ||
(d/2e/2f) \
g4 (f/2g/2a) | g2 (gfed) | e2 G2 (B/2c/2d) | d4 (d/2e/2f) |
g2 (f/2g/2a) ge | d3 (cBA) | G4 BG | A2 (EDEG) | G4 ||


